icon-themes/colibre_svg/cmd/lc_mailmergeprintdocuments.svg

<svg viewBox="0 0 24 24" xmlns="http://www.w3.org/2000/svg"><path d="m3 3v16h1v-14c0-.554.446-1 1-1h10v-1zm2 2v16h5v-6c0-.554.446-1 1-1h1v-1c0-.554.446-1 1-1h4v-7z" fill="#fff"/><path d="m3 2c-.554 0-1 .446-1 1v16c0 .554.446 1 1 1h1v1c0 .554.446 1 1 1h5v-1h-5v-1-1-10-4h12v7h1v-7c0-.554-.446-1-1-1h-1v-1c0-.554-.446-1-1-1zm0 1h12v1h-10c-.554 0-1 .446-1 1v14h-1z" fill="#808080"/><path d="m13.933594 13c-.517279 0-.933594.416315-.933594.933594v1.066406h-1c-.554 0-1 .446-1 1v4c0 .554.446 1 1 1h2v1c0 .554.446 1 1 1h4c.554 0 1-.446 1-1v-1h2c.554 0 1-.446 1-1v-4c0-.554-.446-1-1-1h-1v-1.066406c0-.517279-.416315-.933594-.933594-.933594z" fill="#4d82b8"/><path d="m12 16v4h10v-4zm7.5 1h1c.277 0 .5.223.5.5s-.223.5-.5.5h-1c-.277 0-.5-.223-.5-.5s.223-.5.5-.5z" fill="#fff"/></svg>

<svg viewBox="0 0 24 24" xmlns="http://www.w3.org/2000/svg">
  <path
     style="fill:#ffffff"
     d="M 3 3 L 3 19 L 4 19 L 4 5 C 4 4.446 4.446 4 5 4 L 15 4 L 15 3 L 3 3 z M 5 5 L 5 21 L 10 21 L 10 15 C 10 14.446 10.446 14 11 14 L 12 14 L 12 13 C 12 12.446 12.446 12 13 12 L 17 12 L 17 5 L 5 5 z "
     />
  <path
     style="fill:#808080"
     d="M 3,2 C 2.446,2 2,2.446 2,3 v 16 c 0,0.554 0.446,1 1,1 h 1 v 1 c 0,0.554 0.446,1 1,1 h 5 V 21 H 5 V 20 19 9 5 h 12 v 7 h 1 V 5 C 18,4.446 17.554,4 17,4 H 16 V 3 C 16,2.446 15.554,2 15,2 Z M 3,3 H 15 V 4 H 5 C 4.446,4 4,4.446 4,5 V 19 H 3 Z"
     />
  <path
     style="fill:#4d82b8"
     d="M 13.933594,13 C 13.416315,13 13,13.416315 13,13.933594 V 15 h -1 c -0.554,0 -1,0.446 -1,1 v 4 c 0,0.554 0.446,1 1,1 h 2 v 1 c 0,0.554 0.446,1 1,1 h 4 c 0.554,0 1,-0.446 1,-1 v -1 h 2 c 0.554,0 1,-0.446 1,-1 v -4 c 0,-0.554 -0.446,-1 -1,-1 H 21 V 13.933594 C 21,13.416315 20.583685,13 20.066406,13 Z"
     />
  <path
     style="fill:#ffffff"
     d="m 12,16 v 4 h 10 v -4 z m 7.5,1 h 1 c 0.277,0 0.5,0.223 0.5,0.5 0,0.277 -0.223,0.5 -0.5,0.5 h -1 C 19.223,18 19,17.777 19,17.5 19,17.223 19.223,17 19.5,17 Z"
     />
</svg>
